build/assets/images/proyectos/logos/logo-familiados.svg

<svg width="200" height="200" viewBox="0 0 200 200" fill="none" xmlns="http://www.w3.org/2000/svg">
<rect width="200" height="200" fill="white"/>
<path d="M178.637 101.755C177.728 100.891 176.197 100.212 174.044 99.7182L173 99.4831C172.371 99.3481 171.946 99.2034 171.722 99.0449C171.619 98.981 171.534 98.8919 171.475 98.786C171.416 98.6801 171.385 98.5609 171.385 98.4397C171.385 98.0807 171.587 97.8173 171.99 97.6494C172.395 97.481 172.967 97.3971 173.707 97.3976C174.107 97.4004 174.507 97.4335 174.902 97.4963C175.339 97.5645 175.771 97.6489 176.196 97.7496C176.623 97.8509 177.016 97.9632 177.375 98.0862C177.656 98.1748 177.927 98.2933 178.183 98.4396C178.483 98.182 178.729 97.8676 178.906 97.5144C179.107 97.1004 179.205 96.6442 179.193 96.1843C179.203 95.6783 179.037 95.1847 178.721 94.7888C178.377 94.3724 177.939 94.0434 177.443 93.8284C176.836 93.5618 176.196 93.3752 175.541 93.2733C174.768 93.1469 173.986 93.085 173.202 93.0882C172.186 93.078 171.173 93.2024 170.19 93.4583C169.357 93.6711 168.566 94.024 167.851 94.5018C167.207 94.9346 166.682 95.5216 166.324 96.2094C165.965 96.8973 165.785 97.6639 165.799 98.4394C165.799 99.9657 166.276 101.138 167.229 101.955C168.182 102.776 169.635 103.377 171.587 103.757L172.595 103.959C173.224 104.071 173.673 104.217 173.942 104.396C174.068 104.473 174.172 104.582 174.243 104.712C174.314 104.843 174.349 104.989 174.346 105.137C174.346 105.474 174.161 105.742 173.79 105.944C173.42 106.147 172.887 106.246 172.192 106.246C171.093 106.246 170.122 106.106 169.281 105.826C168.507 105.575 167.758 105.254 167.043 104.867C166.72 105.125 166.447 105.438 166.236 105.792C166.011 106.163 165.899 106.617 165.899 107.156C165.886 107.702 166.058 108.235 166.387 108.671C166.746 109.125 167.208 109.488 167.733 109.73C168.305 110.011 168.995 110.219 169.804 110.354C170.671 110.493 171.549 110.561 172.429 110.555C174.919 110.555 176.803 110.073 178.081 109.107C179.362 108.144 180.001 106.809 180 105.103C180 103.735 179.546 102.619 178.637 101.755Z" fill="black"/>
<path d="M161.149 95.4942C160.352 94.729 159.408 94.134 158.374 93.7452C157.297 93.3291 156.097 93.1213 154.773 93.1219C153.449 93.1226 152.249 93.3243 151.172 93.7272C150.136 94.1056 149.19 94.6966 148.395 95.4622C147.605 96.2365 146.991 97.1718 146.595 98.2045C146.168 99.2813 145.954 100.482 145.955 101.805C145.955 103.151 146.168 104.362 146.595 105.439C146.991 106.472 147.605 107.408 148.395 108.182C149.19 108.947 150.136 109.538 151.172 109.917C152.248 110.32 153.448 110.522 154.773 110.522C156.096 110.522 157.296 110.331 158.374 109.949C159.409 109.593 160.355 109.019 161.149 108.266C161.944 107.495 162.559 106.559 162.951 105.524C163.377 104.435 163.59 103.195 163.59 101.805C163.59 100.504 163.377 99.3151 162.951 98.2378C162.553 97.2052 161.939 96.2697 161.149 95.4942V95.4942ZM156.977 104.934C156.472 105.674 155.748 106.045 154.805 106.046C153.864 106.046 153.128 105.681 152.603 104.952C152.074 104.222 151.81 103.173 151.811 101.805C151.811 100.458 152.069 99.4204 152.584 98.6914C153.101 97.9637 153.83 97.5992 154.773 97.5978C155.715 97.5978 156.444 97.9623 156.96 98.6914C157.475 99.4218 157.733 100.46 157.734 101.805C157.734 103.151 157.481 104.194 156.977 104.934Z" fill="black"/>
<path d="M143.229 110.253V99.2548C143.228 98.9666 143.211 98.6786 143.179 98.3922V90.4297C143.179 89.869 143.112 89.4141 142.979 89.0675C142.859 88.7405 142.648 88.4543 142.372 88.2425C142.078 88.0309 141.738 87.8921 141.38 87.8376C140.94 87.7672 140.494 87.7337 140.049 87.7375C139.542 87.7366 139.036 87.7762 138.535 87.8558C138.172 87.9064 137.812 87.9794 137.458 88.0742V93.2905C136.7 93.1647 135.932 93.1 135.164 93.0971V93.1138H135.153C134.542 93.1123 133.931 93.1583 133.327 93.2515C132.759 93.335 132.199 93.4662 131.652 93.6437C130.619 93.973 129.667 94.5179 128.86 95.2423C128.041 95.9926 127.402 96.9188 126.993 97.9512C126.543 99.0405 126.319 100.325 126.319 101.805C126.319 103.151 126.527 104.356 126.941 105.423C127.338 106.46 127.959 107.397 128.76 108.166C129.555 108.929 130.531 109.512 131.687 109.917C132.843 110.32 134.15 110.522 135.608 110.522C136.147 110.522 136.685 110.49 137.22 110.429H137.223C137.386 110.409 137.547 110.39 137.704 110.365H137.71L137.736 110.359C137.973 110.321 138.207 110.282 138.431 110.231C138.705 110.171 138.972 110.104 139.225 110.024C139.496 109.939 139.751 109.85 139.996 109.758C139.996 109.758 141.669 110.412 143.229 110.253ZM137.493 105.406C137.266 105.589 137.01 105.731 136.734 105.826C136.575 105.886 136.411 105.93 136.243 105.96C136.061 105.988 135.877 106.003 135.692 106.003C134.597 106.003 133.757 105.67 133.156 105.025C133.128 104.995 133.093 104.975 133.067 104.943C132.46 104.236 132.157 103.187 132.158 101.795C132.15 101.2 132.226 100.607 132.384 100.033C132.545 99.469 132.791 98.9987 133.133 98.6328C133.615 98.1181 134.25 97.7939 135.04 97.6603C135.316 97.6182 135.596 97.5973 135.876 97.5977C136.504 97.5977 137.042 97.7326 137.492 98.0012L137.493 105.406Z" fill="black"/>
<path d="M120.327 109.752C120.327 109.752 122 110.406 123.561 110.248V99.2506C123.561 98.196 123.371 97.2819 122.99 96.5084C122.615 95.7419 122.053 95.0821 121.356 94.5898C120.651 94.0847 119.798 93.7086 118.799 93.4613C118.496 93.3862 118.163 93.3445 117.84 93.2933C117.065 93.163 116.281 93.0955 115.494 93.0915V93.1096L115.483 93.1082C114.313 93.0991 113.149 93.2752 112.034 93.6299C111.001 93.9601 110.048 94.5049 109.24 95.2286C109.166 95.2968 109.101 95.3733 109.03 95.4428C108.314 96.1535 107.751 97.0029 107.375 97.9389C106.924 99.0269 106.699 100.311 106.701 101.791C106.701 103.138 106.908 104.344 107.323 105.409C107.619 106.181 108.04 106.899 108.567 107.536C108.746 107.752 108.938 107.958 109.14 108.153C109.936 108.915 110.912 109.498 112.069 109.903C112.888 110.18 113.737 110.358 114.598 110.434C114.908 110.455 115.22 110.476 115.544 110.484C115.694 110.49 115.835 110.509 115.988 110.509C116.675 110.511 117.36 110.461 118.04 110.361C118.553 110.286 119.061 110.172 119.557 110.02C119.826 109.935 120.081 109.846 120.326 109.754L120.327 109.752ZM117.874 105.392C117.648 105.576 117.392 105.718 117.117 105.812C116.767 105.94 116.396 106.004 116.023 105.998C114.928 105.998 114.088 105.665 113.487 105.02C113.459 104.99 113.424 104.97 113.398 104.938C112.791 104.231 112.488 103.182 112.489 101.791C112.481 101.196 112.557 100.602 112.714 100.028C112.876 99.4648 113.122 98.9932 113.464 98.6286C114.116 97.933 115.047 97.5851 116.258 97.5851C116.402 97.5852 116.545 97.5932 116.688 97.6092C117.106 97.6481 117.511 97.7777 117.874 97.989L117.874 105.392Z" fill="black"/>
<path d="M101.071 86.0541C100.129 86.0541 99.372 86.3462 98.8002 86.9306C98.227 87.5135 97.9409 88.231 97.9419 89.083C97.9419 89.9359 98.228 90.6542 98.8002 91.2381C99.372 91.821 100.129 92.1123 101.071 92.1119C102.013 92.1115 102.77 91.8202 103.343 91.2381C103.915 90.6537 104.2 89.9354 104.2 89.083C104.2 88.2315 103.914 87.514 103.343 86.9306C102.77 86.346 102.012 86.0538 101.071 86.0541Z" fill="black"/>
<path d="M103.091 94.0638C102.796 93.8521 102.455 93.7138 102.096 93.6603C101.657 93.5893 101.213 93.5553 100.768 93.5587C100.277 93.5588 99.7878 93.599 99.304 93.6787C98.8211 93.7567 98.4565 93.8193 98.2104 93.8639V107.56C98.2104 108.122 98.2825 108.575 98.4288 108.923C98.5585 109.249 98.7738 109.534 99.0521 109.748C99.3462 109.959 99.6862 110.097 100.044 110.152C100.484 110.222 100.929 110.256 101.374 110.252C101.864 110.252 102.354 110.213 102.838 110.133C103.319 110.056 103.685 109.993 103.931 109.948V96.2523C103.931 95.6916 103.858 95.2371 103.712 94.8888C103.582 94.5632 103.368 94.2782 103.091 94.0638V94.0638Z" fill="black"/>
<path d="M93.9835 88.2425C93.6895 88.0309 93.3495 87.8921 92.9915 87.8376C92.5516 87.7672 92.1067 87.7338 91.6613 87.7375C91.171 87.737 90.6815 87.7765 90.1977 87.8557C89.7149 87.9337 89.3503 87.9963 89.104 88.0409V107.56C89.104 108.122 89.176 108.575 89.3225 108.923C89.4517 109.249 89.6665 109.534 89.9444 109.748C90.239 109.959 90.5794 110.097 90.9378 110.152C91.3771 110.222 91.8215 110.255 92.2663 110.252C92.7571 110.252 93.247 110.213 93.7313 110.133C94.2127 110.056 94.5773 109.993 94.825 109.948V90.4297C94.825 89.869 94.7512 89.4141 94.6065 89.0675C94.4768 88.7415 94.2615 88.4565 93.9835 88.2425V88.2425Z" fill="black"/>
<path d="M82.8789 86.0541C81.9371 86.0541 81.1798 86.3462 80.607 86.9306C80.0338 87.5135 79.7476 88.231 79.7485 89.083C79.7485 89.9359 80.0347 90.6542 80.607 91.2381C81.1788 91.821 81.9361 92.1123 82.8789 92.1119C83.8217 92.1115 84.5791 91.8202 85.151 91.2381C85.7229 90.6537 86.0086 89.9354 86.0081 89.083C86.0081 88.2315 85.7224 87.514 85.151 86.9306C84.5778 86.346 83.8204 86.0538 82.8789 86.0541Z" fill="black"/>
<path d="M84.8982 94.0638C84.604 93.852 84.2634 93.7136 83.9049 93.6603C83.4656 93.5894 83.0212 93.5555 82.5763 93.5588C82.086 93.5588 81.5964 93.599 81.1126 93.6788C80.6286 93.7568 80.2653 93.8193 80.019 93.8639V107.56C80.019 108.122 80.0911 108.575 80.2376 108.923C80.3673 109.249 80.5826 109.534 80.861 109.748C81.1549 109.96 81.495 110.098 81.853 110.152C82.2923 110.222 82.7367 110.256 83.1815 110.252C83.6723 110.252 84.1622 110.213 84.6465 110.134C85.1279 110.056 85.4925 109.993 85.7401 109.948V96.2523C85.7401 95.6917 85.6668 95.2372 85.5204 94.8889C85.3906 94.5632 85.1757 94.2782 84.8982 94.0638Z" fill="black"/>
<path d="M74.551 94.5188C73.896 94.0287 73.153 93.6688 72.3624 93.4587C71.546 93.2346 70.7032 93.1214 69.8566 93.122C68.6656 93.122 67.6499 93.2676 66.8096 93.5589C66.0088 93.8318 65.2458 94.2053 64.5391 94.6705C63.8534 94.1374 63.0702 93.7432 62.2335 93.51C61.3537 93.2522 60.4415 93.1215 59.5247 93.1218C58.3229 93.1171 57.1268 93.2873 55.974 93.6269C54.8401 93.9636 53.8921 94.4014 53.1302 94.9403C52.7224 95.2142 52.3639 95.5552 52.0699 95.9487C51.8112 96.3077 51.6823 96.7905 51.6831 97.3973V107.56C51.6831 108.122 51.7551 108.575 51.903 108.923C52.0312 109.249 52.2457 109.535 52.5235 109.748C52.8183 109.959 53.1586 110.097 53.5169 110.152C53.9567 110.222 54.4017 110.256 54.8471 110.252C55.3478 110.253 55.848 110.219 56.3442 110.152C56.7018 110.109 57.0561 110.041 57.4043 109.949V98.1377C57.6446 98.0063 57.8917 97.8879 58.1445 97.7829C58.4766 97.6525 58.8313 97.5896 59.188 97.5978C59.771 97.5978 60.27 97.7495 60.6851 98.0528C61.1012 98.3548 61.309 98.8427 61.3084 99.5165V107.56C61.3084 108.122 61.3804 108.575 61.5269 108.923C61.6565 109.249 61.8719 109.534 62.1502 109.748C62.4443 109.959 62.7843 110.098 63.1422 110.152C63.5815 110.222 64.0259 110.256 64.4708 110.252C64.9609 110.252 65.4504 110.219 65.9359 110.152C66.3041 110.106 66.6693 110.038 67.0295 109.949V98.5231C67.0286 98.438 67.0169 98.3534 66.9946 98.2713C67.2386 98.0779 67.512 97.9248 67.8044 97.8177C68.123 97.6796 68.4655 97.6049 68.8128 97.5978C69.4625 97.5978 69.9782 97.7495 70.3598 98.0528C70.7411 98.3548 70.9317 98.8427 70.9316 99.5165V107.56C70.9316 108.122 71.0054 108.575 71.1516 108.923C71.2812 109.249 71.496 109.534 71.7734 109.748C72.0682 109.959 72.4086 110.097 72.7669 110.152C73.2067 110.222 73.6517 110.256 74.0971 110.252C74.5978 110.253 75.098 110.219 75.5941 110.152C75.9514 110.109 76.3052 110.041 76.6529 109.949V99.3482C76.6529 98.2045 76.4623 97.2343 76.0811 96.4375C75.7344 95.6832 75.2092 95.0247 74.551 94.5188V94.5188Z" fill="black"/>
<path d="M45.308 109.758C45.308 109.758 46.983 110.412 48.5428 110.253V99.2562C48.5428 98.2017 48.3522 97.2876 47.971 96.514C47.5967 95.7476 47.0355 95.0878 46.339 94.5954C45.6321 94.0903 44.7797 93.7142 43.7818 93.4669C43.4784 93.3918 43.146 93.35 42.8214 93.2989C42.0462 93.1685 41.2617 93.101 40.4756 93.0971V93.1152L40.4659 93.1138C39.2958 93.1047 38.1316 93.2808 37.0165 93.6356C35.9829 93.9654 35.0308 94.5102 34.2227 95.2342C34.1489 95.3024 34.0835 95.3789 34.0126 95.4485C33.2962 96.1591 32.7323 97.0084 32.3554 97.9445C31.9061 99.0325 31.6816 100.317 31.6821 101.797C31.6821 103.144 31.8894 104.35 32.3041 105.414C32.6008 106.186 33.0214 106.905 33.5493 107.542C33.7282 107.758 33.9196 107.964 34.1224 108.158C34.9183 108.92 35.8941 109.504 37.0497 109.908C37.8693 110.185 38.7189 110.364 39.5806 110.44C39.8909 110.461 40.2025 110.481 40.5266 110.49C40.6755 110.495 40.816 110.515 40.9705 110.515C41.6568 110.516 42.3423 110.467 43.0212 110.366C43.5347 110.292 44.0418 110.178 44.5378 110.025C44.8076 109.94 45.0641 109.852 45.3072 109.759L45.308 109.758ZM42.8564 105.398C42.6309 105.581 42.3746 105.723 42.0995 105.818C41.749 105.946 41.3778 106.009 41.0045 106.004C39.911 106.004 39.0706 105.67 38.4697 105.026C38.4417 104.995 38.4069 104.975 38.3806 104.944C37.7739 104.237 37.471 103.188 37.472 101.797C37.464 101.202 37.5394 100.608 37.6961 100.034C37.8588 99.4705 38.105 98.9989 38.4473 98.6343C39.0972 97.9387 40.0285 97.5908 41.2411 97.5908C41.3848 97.5909 41.5283 97.599 41.671 97.6149C42.089 97.6543 42.4934 97.7839 42.8565 97.9947L42.8564 105.398Z" fill="black"/>
<path d="M30.7094 86.7276C30.1445 86.37 29.1307 86.0003 27.4711 86.0003C26.4884 85.9942 25.5093 86.1186 24.5594 86.3704C23.6989 86.5943 22.8922 86.9889 22.1874 87.5309C21.5056 88.0711 20.9583 88.762 20.5885 89.5493C20.1963 90.3701 20 91.697 20 92.8406V113.377C20 113.377 21.0876 113.378 21.8735 113.377C22.6593 113.375 24.1158 112.991 24.8747 112.189C25.6336 111.388 25.7195 110.474 25.721 109.645C25.7224 108.817 25.721 99.4634 25.721 99.4634C25.721 99.4634 27.1889 99.4697 27.7448 99.4634C28.2893 99.4486 28.8086 99.2313 29.2014 98.8539C29.529 98.5178 29.8962 98.0003 29.9428 97.2933C29.9895 96.5863 29.9257 96.2842 29.8655 95.8594C29.8081 95.5274 29.7266 95.2001 29.6215 94.88H25.4176V93.0423C25.4176 92.2354 25.6871 91.6687 26.226 91.3423C26.7643 91.0181 27.516 90.8558 28.481 90.8553C29.0861 90.8553 29.6882 90.9635 30.1487 91.0428C30.6078 91.1221 31.4081 91.328 31.4081 91.328C31.5624 90.9931 31.6883 90.6458 31.7843 90.2898C31.9099 89.7832 32.0494 88.9747 31.8883 88.2511C31.7272 87.5275 31.2742 87.0852 30.7094 86.7276Z" fill="black"/>
</svg>

<svg width="200" height="200" fill="none" xmlns="http://www.w3.org/2000/svg"><path fill="#fff" d="M0 0h200v200H0z"/><path d="M178.637 101.755c-.909-.864-2.44-1.543-4.593-2.037L173 99.483c-.629-.135-1.054-.28-1.278-.438a.713.713 0 01-.337-.605c0-.36.202-.623.605-.79.405-.169.977-.253 1.717-.252.4.002.8.035 1.195.098a17.2 17.2 0 011.294.254c.427.1.82.213 1.179.336.281.089.552.207.808.354.3-.258.546-.572.723-.926.201-.414.299-.87.287-1.33.01-.506-.156-1-.472-1.395a3.424 3.424 0 00-1.278-.96 7.66 7.66 0 00-1.902-.556 14.133 14.133 0 00-2.339-.185 11.498 11.498 0 00-3.012.37 7.592 7.592 0 00-2.339 1.044 4.637 4.637 0 00-2.052 3.937c0 1.527.477 2.699 1.43 3.516.953.821 2.406 1.422 4.358 1.802l1.008.202c.629.112 1.078.258 1.347.437a.846.846 0 01.404.741c0 .337-.185.605-.556.807-.37.203-.903.302-1.598.302-1.099 0-2.07-.14-2.911-.42a13.358 13.358 0 01-2.238-.959 3.433 3.433 0 00-.807.925c-.225.371-.337.825-.337 1.364a2.418 2.418 0 00.488 1.515c.359.454.821.817 1.346 1.059.572.281 1.262.489 2.071.624.867.139 1.745.207 2.625.201 2.49 0 4.374-.482 5.652-1.448 1.281-.963 1.92-2.298 1.919-4.004 0-1.368-.454-2.484-1.363-3.348zm-17.488-6.261a8.147 8.147 0 00-2.775-1.749c-1.077-.416-2.277-.624-3.601-.623-1.324 0-2.524.202-3.601.605a7.922 7.922 0 00-2.777 1.735 7.7 7.7 0 00-1.8 2.742c-.427 1.077-.641 2.278-.64 3.601 0 1.346.213 2.557.64 3.634a7.698 7.698 0 001.8 2.743 7.94 7.94 0 002.777 1.735c1.076.403 2.276.605 3.601.605 1.323 0 2.523-.191 3.601-.573a7.647 7.647 0 002.775-1.683 7.54 7.54 0 001.802-2.742c.426-1.089.639-2.329.639-3.719 0-1.301-.213-2.49-.639-3.567a7.75 7.75 0 00-1.802-2.744zm-4.172 9.44c-.505.74-1.229 1.111-2.172 1.112-.941 0-1.677-.365-2.202-1.094-.529-.73-.793-1.779-.792-3.147 0-1.347.258-2.385.773-3.114.517-.727 1.246-1.092 2.189-1.093.942 0 1.671.364 2.187 1.093.515.73.773 1.769.774 3.114 0 1.346-.253 2.389-.757 3.129zm-13.748 5.319V99.255a8.02 8.02 0 00-.05-.863V90.43c0-.561-.067-1.016-.2-1.363a1.84 1.84 0 00-.607-.824 2.288 2.288 0 00-.992-.405 8 8 0 00-1.331-.1 9.48 9.48 0 00-1.514.118c-.363.05-.723.123-1.077.218v5.216a14.35 14.35 0 00-2.294-.193v.017h-.011a11.789 11.789 0 00-1.826.137 10.26 10.26 0 00-1.675.393 7.666 7.666 0 00-2.792 1.598 7.343 7.343 0 00-1.867 2.71c-.45 1.088-.674 2.373-.674 3.853 0 1.346.208 2.551.622 3.618a7.54 7.54 0 001.819 2.743c.795.763 1.771 1.346 2.927 1.751 1.156.403 2.463.605 3.921.605.539 0 1.077-.032 1.612-.093h.003c.163-.02.324-.039.481-.064h.006l.026-.006c.237-.038.471-.077.695-.128.274-.06.541-.127.794-.207.271-.085.526-.174.771-.266 0 0 1.673.654 3.233.495zm-5.736-4.847a2.51 2.51 0 01-.759.42 2.764 2.764 0 01-1.042.177c-1.095 0-1.935-.333-2.536-.978-.028-.03-.063-.05-.089-.082-.607-.707-.91-1.756-.909-3.148a6.318 6.318 0 01.226-1.762c.161-.564.407-1.034.749-1.4.482-.515 1.117-.84 1.907-.973.276-.042.556-.063.836-.062.628 0 1.166.135 1.616.403l.001 7.405zm-17.166 4.346s1.673.654 3.234.496V99.251c0-1.055-.19-1.97-.571-2.743a5.085 5.085 0 00-1.634-1.918c-.705-.505-1.558-.881-2.557-1.129-.303-.075-.636-.117-.959-.168a14.592 14.592 0 00-2.346-.202v.019l-.011-.002a11.087 11.087 0 00-3.449.522 7.705 7.705 0 00-2.794 1.599c-.074.068-.139.144-.21.214a7.407 7.407 0 00-1.655 2.496c-.451 1.088-.676 2.372-.674 3.852 0 1.347.207 2.553.622 3.618a7.615 7.615 0 001.817 2.744c.796.762 1.772 1.345 2.929 1.75.819.277 1.668.455 2.529.531.31.021.622.042.946.05.15.006.291.025.444.025.687.002 1.372-.048 2.052-.148a10.234 10.234 0 001.517-.341c.269-.085.524-.174.769-.266l.001-.002zm-2.453-4.36a2.457 2.457 0 01-.757.42c-.35.128-.721.192-1.094.186-1.095 0-1.935-.333-2.536-.978-.028-.03-.063-.05-.089-.082-.607-.707-.91-1.756-.909-3.147a6.362 6.362 0 01.225-1.763c.162-.563.408-1.035.75-1.4.652-.695 1.583-1.043 2.794-1.043.144 0 .287.008.43.024a2.89 2.89 0 011.186.38v7.403zm-16.803-19.338c-.942 0-1.699.292-2.27.877-.574.582-.86 1.3-.86 2.152 0 .853.287 1.571.86 2.155.571.583 1.328.874 2.27.874s1.699-.292 2.272-.874c.572-.584.857-1.303.857-2.155 0-.852-.286-1.569-.857-2.152-.573-.585-1.331-.877-2.272-.877zm2.02 8.01a2.284 2.284 0 00-.995-.404 7.936 7.936 0 00-1.328-.101c-.491 0-.98.04-1.464.12-.483.078-.847.14-1.094.185v13.696c0 .562.073 1.015.219 1.363.13.326.345.611.623.825a2.3 2.3 0 00.992.404c.44.07.885.104 1.33.1.49 0 .98-.039 1.464-.119.481-.077.847-.14 1.093-.185V96.252c0-.56-.073-1.015-.219-1.363a1.963 1.963 0 00-.621-.825zm-9.107-5.821a2.288 2.288 0 00-.992-.405 7.997 7.997 0 00-1.33-.1 8.86 8.86 0 00-1.464.118c-.483.078-.848.14-1.094.185v19.519c0 .562.072 1.015.219 1.363.129.326.344.611.621.825.295.211.635.349.994.404.44.07.883.103 1.328.1.491 0 .981-.039 1.465-.119.482-.077.846-.14 1.094-.185V90.43c0-.561-.074-1.016-.219-1.363a1.952 1.952 0 00-.622-.824zm-11.105-2.189c-.942 0-1.7.292-2.272.877-.573.582-.86 1.3-.858 2.152 0 .853.286 1.571.858 2.155.572.583 1.33.874 2.272.874.943 0 1.7-.292 2.272-.874.572-.584.858-1.303.857-2.155 0-.852-.286-1.569-.857-2.152-.573-.585-1.33-.877-2.272-.877zm2.019 8.01a2.272 2.272 0 00-.993-.404 7.967 7.967 0 00-1.329-.101c-.49 0-.98.04-1.463.12-.484.078-.848.14-1.094.185v13.696c0 .562.072 1.015.219 1.363.13.326.345.611.623.825.294.212.634.35.992.404a9.113 9.113 0 002.794-.018c.48-.078.846-.141 1.093-.186V96.252c0-.56-.073-1.015-.22-1.363a1.96 1.96 0 00-.622-.825zm-10.347.455a6.395 6.395 0 00-2.189-1.06 9.44 9.44 0 00-2.505-.337c-1.191 0-2.207.146-3.047.437a9.99 9.99 0 00-2.27 1.112 6.677 6.677 0 00-2.307-1.161 9.622 9.622 0 00-2.708-.388 12.394 12.394 0 00-3.551.505c-1.134.337-2.082.774-2.844 1.313a4.354 4.354 0 00-1.06 1.009c-.259.359-.388.841-.387 1.448v10.163c0 .562.072 1.015.22 1.363.128.326.343.612.62.825.295.211.636.349.994.404.44.07.885.104 1.33.1.5.001 1.001-.033 1.497-.1a7.793 7.793 0 001.06-.203V98.138c.24-.132.488-.25.74-.355.333-.13.687-.193 1.044-.185.583 0 1.082.151 1.497.455.416.302.624.79.623 1.463v8.044c0 .562.072 1.015.219 1.363.13.326.345.611.623.825.294.211.634.35.992.404.44.07.884.104 1.329.1.49 0 .98-.033 1.465-.1a9.437 9.437 0 001.093-.203V98.523a1 1 0 00-.034-.252 2.92 2.92 0 01.81-.453 2.673 2.673 0 011.008-.22c.65 0 1.165.151 1.547.455.381.302.572.79.572 1.463v8.044c0 .562.073 1.015.22 1.363.13.326.344.611.621.825.295.211.636.349.994.404.44.07.885.104 1.33.1.5.001 1.001-.033 1.497-.1a7.768 7.768 0 001.059-.203v-10.6c0-1.145-.19-2.115-.572-2.912a5.114 5.114 0 00-1.53-1.918zm-29.243 15.239s1.675.654 3.235.495V99.256c0-1.054-.19-1.968-.572-2.742a5.08 5.08 0 00-1.632-1.919c-.707-.505-1.56-.88-2.557-1.128-.304-.075-.636-.117-.96-.168-.776-.13-1.56-.198-2.346-.202v.018l-.01-.001c-1.17-.01-2.334.167-3.45.522a7.69 7.69 0 00-2.793 1.598c-.074.068-.14.145-.21.215a7.418 7.418 0 00-1.658 2.496c-.449 1.088-.673 2.372-.673 3.852 0 1.347.207 2.553.622 3.617a7.619 7.619 0 001.818 2.744c.796.762 1.772 1.346 2.928 1.75a10.9 10.9 0 002.53.532c.31.021.623.041.947.05.148.005.289.025.444.025.686.001 1.371-.048 2.05-.149a9.97 9.97 0 001.517-.341c.27-.085.526-.173.77-.266v-.001zm-2.452-4.36a2.492 2.492 0 01-.757.42c-.35.128-.721.191-1.094.186-1.094 0-1.934-.334-2.535-.978-.028-.031-.063-.051-.09-.082-.606-.707-.909-1.756-.908-3.147a6.372 6.372 0 01.224-1.763c.163-.564.409-1.035.751-1.4.65-.695 1.581-1.043 2.794-1.043.144 0 .287.008.43.024.418.04.822.169 1.185.38v7.403zM30.71 86.728c-.567-.358-1.58-.728-3.24-.728a11.095 11.095 0 00-2.912.37 6.63 6.63 0 00-2.372 1.16 5.628 5.628 0 00-1.599 2.02c-.392.82-.588 2.147-.588 3.29v20.537h1.873c.786-.002 2.243-.386 3.002-1.188.759-.801.845-1.715.846-2.544V99.463s1.468.007 2.024 0a2.188 2.188 0 001.456-.61c.328-.335.695-.853.742-1.56.046-.707-.017-1.009-.078-1.434a6.917 6.917 0 00-.243-.979h-4.204v-1.838c0-.807.27-1.373.808-1.7.538-.324 1.29-.486 2.255-.487.605 0 1.207.108 1.668.188a22.2 22.2 0 011.26.285c.153-.335.28-.682.375-1.038.126-.507.265-1.315.104-2.039-.16-.724-.614-1.166-1.179-1.523z" fill="#000"/></svg>
